X: 36577
T: Shady Road To Clamper, The
R: polka
M: 2/4
K: Amajor
|:E|A>B ce|ae fe|A>B ce|f/e/c ef|
A>B ce|ae fe|Ac BA/B/|cA A:|
e|ce A>B|ce fe|ce A>B|ce B2|
ce A>B|ce fe|Ac BA/B/|cA Ae|
ce Ac|eA ce|Ac ec|dB e>d|
ce A>B|ce fe|Ac BA/B/|cA A||

